img/sprite/draw-tablet.svg

<svg xmlns="http://www.w3.org/2000/svg" x="0" y="0" viewBox="0 0 46.062 46.062">
<path d="M40.273,37.108c-0.1-4-0.7-31.3-0.9-34.4c-0.3-3-3.3-2.7-5.4-2.7h-24.7c-1.1,0-3,0.1-3.2,0.7
	c-0.6,1.4-0.3,3.5-0.1,5.9c0.2,2.4,0.9,21.7,1,28.9c0.1,7.1,0.5,8.2,1.2,9.6c0.7,1.3,6,0.7,15.3,0.8s15,0.5,16.1-0.6
	S40.273,41.108,40.273,37.108z M38.573,42.808c-1,0.1-18.3,0.3-22.6,0.3s-6.6-0.5-7.1-0.9s-1.2-8.9-1.1-14.9s-0.3-12-0.7-16.2
	c-0.4-4.3-0.6-9.3-0.2-9.8c0.3-0.4,14.1-0.1,17.6-0.1c3.6-0.1,12.1-0.7,13,1.1s0.8,3.2,0.8,4.8s0.9,24.1,0.8,27.9
	S39.573,42.708,38.573,42.808z M11.873,3.008c0.4-0.1-0.1-1-0.6-1s-2.3,0.2-2.6,0.4c-0.3,0.3,0,5.2,0.1,5.5c0.1,0.2,0.8-0.1,1-0.5
	s0-3.8,0-4C9.773,3.308,11.473,3.108,11.873,3.008z M31.173,4.308c-2.2,0-14.7-0.2-16.1-0.2c-1.5,0-3.5,0.5-3.8,0.9
	c-0.3,0.7-0.2,3.7-0.3,5.5c0,1.9,0.2,14.9,0.1,18.4s0.2,5.9,0.8,6.9c0.6,1,2.5,0.9,5.5,1.1c3,0.2,8.1,0.3,11.3,0.4
	c3.2,0.1,4.8-0.1,6.2-1c1.4-0.9,1.3-2.1,1.4-4.6s0.4-17.3,0.5-20.9s-0.3-3.7-0.7-5.3C35.673,4.108,33.373,4.308,31.173,4.308z
	M35.273,29.008c0,2.9,0,4.9-0.4,5.6c-0.3,0.7-1.1,1.6-4.5,1.6s-13-0.4-14.3-0.4c-1.2-0.1-2.9,0-3.3-0.9c-0.4-1-0.5-5.8-0.5-12.3
	c0.1-6.6-0.4-16.1,0-16.7c0.1-0.3,7.4-0.3,10.8-0.3c3.5-0.1,10.7,0.1,11.2,0.4c0.5,0.2,1.4,1.7,1.4,3.8S35.273,26.008,35.273,29.008
	z M25.573,38.508c-1.6-1.1-3.4-0.3-3.9,0.3c-0.5,0.5-0.3,1.8,0.3,2.2c0.6,0.4,2.5,0.8,3.2,0.5
	C25.873,41.208,27.073,39.708,25.573,38.508z M24.173,40.508c-0.9,0-2.4-0.4-1.3-1.2c0.3-0.2,1.6-0.2,2.1,0.2
	S25.073,40.508,24.173,40.508z M25.473,6.508c-0.4,0-0.5,0.3-0.5,0.6c0,0,7.4,9.9,7.7,10.2c0.3,0.3,0.4-0.2,0.3-0.6
	C32.973,16.308,25.973,6.508,25.473,6.508z M21.473,8.508c-0.6,0-0.6,0.4-0.5,0.6s1.7,2.2,3.4,4.3c1.7,2.2,7.6,9.3,7.7,9.3
	C32.173,22.608,22.273,8.508,21.473,8.508z M18.373,11.008c-0.4-0.1-0.6,0.4-0.5,0.6c0.1,0.2,0.5,0.8,1.7,2.1s10.2,14,10.2,14
	s-0.4-1-1.5-3.2C27.073,22.408,18.573,11.108,18.373,11.008z M16.173,15.308c-1.1,0-0.4,0.9-0.4,1.1c0,0.2,1.4,1.9,3.5,4.3
	s8.6,11.5,8.9,11.3C28.573,31.708,16.473,15.308,16.173,15.308z M16.073,23.008c-0.1,0.1-0.5,0.3-0.5,0.6s9.6,11.8,9.7,11.6
	C25.273,34.908,16.473,22.808,16.073,23.008z M15.473,30.008c-1-0.1,0,1.3,0.2,1.6c0.2,0.4,3.3,3.5,3.5,3
	C19.373,34.208,15.973,30.108,15.473,30.008z"/>
</svg>

<svg xmlns="http://www.w3.org/2000/svg" viewBox="0 0 46.062 46.062"><path d="M40.273 37.108c-.1-4-.7-31.3-.9-34.4-.3-3-3.3-2.7-5.4-2.7h-24.7c-1.1 0-3 .1-3.2.7-.6 1.4-.3 3.5-.1 5.9.2 2.4.9 21.7 1 28.9.1 7.1.5 8.2 1.2 9.6.7 1.3 6 .7 15.3.8s15 .5 16.1-.6.7-4.2.7-8.2zm-1.7 5.7c-1 .1-18.3.3-22.6.3s-6.6-.5-7.1-.9-1.2-8.9-1.1-14.9-.3-12-.7-16.2c-.4-4.3-.6-9.3-.2-9.8.3-.4 14.1-.1 17.6-.1 3.6-.1 12.1-.7 13 1.1s.8 3.2.8 4.8.9 24.1.8 27.9.5 7.7-.5 7.8zm-26.7-39.8c.4-.1-.1-1-.6-1s-2.3.2-2.6.4c-.3.3 0 5.2.1 5.5.1.2.8-.1 1-.5s0-3.8 0-4c0-.1 1.7-.3 2.1-.4zm19.3 1.3c-2.2 0-14.7-.2-16.1-.2-1.5 0-3.5.5-3.8.9-.3.7-.2 3.7-.3 5.5 0 1.9.2 14.9.1 18.4s.2 5.9.8 6.9c.6 1 2.5.9 5.5 1.1 3 .2 8.1.3 11.3.4 3.2.1 4.8-.1 6.2-1 1.4-.9 1.3-2.1 1.4-4.6s.4-17.3.5-20.9-.3-3.7-.7-5.3c-.4-1.4-2.7-1.2-4.9-1.2zm4.1 24.7c0 2.9 0 4.9-.4 5.6-.3.7-1.1 1.6-4.5 1.6s-13-.4-14.3-.4c-1.2-.1-2.9 0-3.3-.9-.4-1-.5-5.8-.5-12.3.1-6.6-.4-16.1 0-16.7.1-.3 7.4-.3 10.8-.3 3.5-.1 10.7.1 11.2.4.5.2 1.4 1.7 1.4 3.8s-.4 16.2-.4 19.2zm-9.7 9.5c-1.6-1.1-3.4-.3-3.9.3-.5.5-.3 1.8.3 2.2.6.4 2.5.8 3.2.5.7-.3 1.9-1.8.4-3zm-1.4 2c-.9 0-2.4-.4-1.3-1.2.3-.2 1.6-.2 2.1.2s.1 1-.8 1zm1.3-34c-.4 0-.5.3-.5.6 0 0 7.4 9.9 7.7 10.2.3.3.4-.2.3-.6 0-.4-7-10.2-7.5-10.2zm-4 2c-.6 0-.6.4-.5.6s1.7 2.2 3.4 4.3c1.7 2.2 7.6 9.3 7.7 9.3.1-.1-9.8-14.2-10.6-14.2zm-3.1 2.5c-.4-.1-.6.4-.5.6.1.2.5.8 1.7 2.1s10.2 14 10.2 14-.4-1-1.5-3.2c-1.2-2.1-9.7-13.4-9.9-13.5zm-2.2 4.3c-1.1 0-.4.9-.4 1.1 0 .2 1.4 1.9 3.5 4.3s8.6 11.5 8.9 11.3c.4-.3-11.7-16.7-12-16.7zm-.1 7.7c-.1.1-.5.3-.5.6s9.6 11.8 9.7 11.6c0-.3-8.8-12.4-9.2-12.2zm-.6 7c-1-.1 0 1.3.2 1.6.2.4 3.3 3.5 3.5 3 .2-.4-3.2-4.5-3.7-4.6z"/></svg>
